X:2
T:RVW22/2 The Poachers
C:Mr. Longhurst, Broadmoor, Surrey, 27 December 1903
L:1/8
Q:1/4=120
M:6/8
I:linebreak $
K:G
"^(Editorial suggestion " D | G2 B d2 e | (d2 B) A2 G |"^(a)" B2 G E2 D | D3 z2 G |$ G2 B d2 e | 
w: When|I was bound ap-|pren- * tice in|famed North- amp- ton-|shire I|served my mas- ter|
(d2 B) A2 G | B2 G (E2 D) | G3 z2 G |$ G2 B (d2 e) | (d2 B) A2 G | B2 G E2 D | D2 z D2 D |$ 
w: tru- * ly for|sev- en long _|year Till|I took up _|poach- * ing as|you shall quick- ly|hear for it's|
G2 B ddd | e2 d B2 G/G/ | A2 G G2 G | G4 z ||$ D | G2 B d2 e | (d2 B) A2 G | 
w: my de- light on a|shi- ny night in the|sea- son of the|year.||||
"^(a) var." B2 d e2 f | g3 z2 G |$ G2 B d2 e | d2 B A2 G | B2 G E2 D | G3 z2 G |$ G2 B d2 e | 
w: |||||||
d2 B A2 G | B2 G E2 D | D2 z D2 D |$ G2 B ddd | e2 d B2 G/G/ | A2 G G2 G | G4 z |] 
w: |||||||



